X:87
T:Hunt the Hare
T:Dance
S:John Moore's Book 2
Z:Transcribed by Edmund Spriggs 05/2021
%%VWML: Moore1-4494-p68-0
F:http://www.vwml.org/record/Moore2/4494/p68
M:6/8
N:Three semiquavers in the first bar should be marked as triplets.
N:Second note in bar 3 should be a quaver.
N:The two quavers at the start of the second strain should be semiquavers.
N:Last note in bar 8 should be a dotted quaver.
L:1/8
K:D
A/B/c/|d2D FGA|Bed cBA|d2D2 FGA|Becd2:|
|:de|fed fed|fed fed|ced ced|Bgfe2|
d2D FGA|Bed cBA|d2D FGA|Becd2:|

